X:1
T:Gujarat, 85.85 D
T:Gujarat, 85.85 D
T:William James Kirkpatrick, 1882
T:Public Domain Courtesy of the Cyber Hymnal™
C:William James Kirkpatrick, 1882
Z:Public Domain
Z:Courtesy of the Cyber Hymnal™
%%score ( 1 2 ) ( 3 4 )
L:1/8
Q:1/4=98
M:3/4
K:D
V:1 treble 
V:2 treble 
V:3 bass 
V:4 bass 
V:1
 [FA]>[GB] | [FA]2 [DF]2 [FA]>[GB] | [FA]2 [DF]2 [FA]>[GB] | ([FA]2 [DF]2) D2 | [CE]4 [FA]>[GB] | %5
 [FA]2 [DF]2 [FA]>[GB] | [FA]2 [DF]2 [Fd]>[Fd] | [Ec]4 [DB]2 | [CA]4 [GA]>[GA] | %9
 [Fd]3 [Fd] [Ac][GB] | [FA]2 [DF]2 [FA]>[FA] | [GB]4 [Gd]2 [Ec]4 [GA]>[GA] | [Fd]3 [Fd] [Ac][GB] | %13
 [FA]2 [DF]2 [FA]>[FA] | [GB]4 [Gc]2 | [Fd]4 |] %16
V:2
 x2 | x6 | x6 | x4 D2 | x6 | x6 | x6 | x6 | x6 | x6 | x6 | x12 | x6 | x6 | x6 | x4 |] %16
V:3
 [D,D]>[D,D] | [D,D]2 [D,A,]2 [D,D]>[D,D] | [D,D]2 [D,A,]2 [D,D]>[D,D] | (D2 A,2) [F,A,]2 | %4
 A,4 [D,A,]>[D,D] | [D,D]2 [D,A,]2 [D,D]>[D,D] | [D,D]2 [D,A,]2 [D,A,]>[D,A,] | [E,A,]4 [E,^G,]2 | %8
 [A,,A,]4 A,>A, | [D,A,]3 [D,A,] [D,A,][D,D] | [D,D]2 [D,A,]2 [D,D]>[D,D] | %11
 [G,D]4 [G,B,]2 A,4 [A,C]>[A,C] | [D,A,]3 [D,A,] [D,A,][D,D] | [D,D]2 [D,A,]2 [D,D]>[D,D] | %14
 [G,D]4 A,2 | [D,A,]4 |] %16
V:4
 x2 | x6 | x6 | D,4 x2 | A,4 x2 | x6 | x6 | x6 | x4 A,>A, | x6 | x6 | x6 A,4 x2 | x6 | x6 | %14
 x4 A,2 | x4 |] %16

